Newaita-dark/apps/64/opendesktop.svg

<svg height="64pt" viewBox="0 0 64 64" width="64pt" xmlns="http://www.w3.org/2000/svg" xmlns:xlink="http://www.w3.org/1999/xlink"><linearGradient id="a" gradientUnits="userSpaceOnUse" x1="31.753048" x2="31.753048" y1="5.79220599994" y2="56.067866"><stop offset="0" stop-color="#4dd0e1"/><stop offset="1" stop-color="#26c6da"/></linearGradient><linearGradient id="b" gradientUnits="userSpaceOnUse" x1="31.753048" x2="31.753048" y1="5.79220599994" y2="56.067866"><stop offset="0" stop-color="#f06292"/><stop offset="1" stop-color="#ec407a"/></linearGradient><linearGradient id="c" gradientUnits="userSpaceOnUse" x1="31.753048" x2="31.753048" y1="5.79220599994" y2="56.067866"><stop offset="0" stop-color="#ff8a65"/><stop offset="1" stop-color="#ff7043"/></linearGradient><linearGradient id="d"><stop offset="0" stop-opacity=".313726"/><stop offset=".222222" stop-opacity=".27451"/><stop offset="1" stop-opacity="0"/></linearGradient><radialGradient id="e" cx="450.908936" cy="189.579361" gradientTransform="matrix(.00000035 -.156265 -.281277 -.0000002 89.046304 127.190659)" gradientUnits="userSpaceOnUse" r="21.166656" xlink:href="#d"/><radialGradient id="f" cx="450.908936" cy="189.579361" gradientTransform="matrix(-.00000035 .156265 .281277 .0000002 -25.540237 -15.054964)" gradientUnits="userSpaceOnUse" r="21.166656" xlink:href="#d"/><radialGradient id="g" cx="450.908936" cy="189.579361" gradientTransform="matrix(-.00000035 -.156265 .281277 -.0000002 -25.540237 127.190659)" gradientUnits="userSpaceOnUse" r="21.166656" xlink:href="#d"/><radialGradient id="h" cx="450.908936" cy="189.579361" gradientTransform="matrix(.00000035 .156265 -.281277 .0000002 89.0463 -15.054965)" gradientUnits="userSpaceOnUse" r="21.166656" xlink:href="#d"/><linearGradient id="i" gradientTransform="matrix(.0267201 0 0 .125012 24.930772 26.877567)" gradientUnits="userSpaceOnUse" x1="255.323059" x2="255.323044" y1="233.5" y2="254.666656"><stop offset="0" stop-opacity=".27451"/><stop offset="1" stop-opacity="0"/></linearGradient><linearGradient id="j" gradientUnits="userSpaceOnUse" x1="31.753048" x2="31.753048" y1="5.79220599994" y2="56.067866"><stop offset="0" stop-color="#ffb74d"/><stop offset="1" stop-color="#ffa726"/></linearGradient><path d="m31.753906 5.792969c-6.691406 0-12.757812 2.589843-17.253906 6.824219l5.402344 5.402343c.375-.203125.808594-.320312 1.265625-.320312h21.167969c.460937 0 .890624.117187 1.265624.320312l5.402344-5.402343c-4.492187-4.234376-10.558594-6.824219-17.25-6.824219zm0 0" fill="url(#a)"/><path d="m13.441406 13.675781c-4.238281 4.496094-6.828125 10.5625-6.828125 17.253907 0 6.691406 2.589844 12.757812 6.828125 17.253906l5.402344-5.40625c-.203125-.375-.320312-.804688-.320312-1.261719v-21.171875c0-.457031.113281-.886719.320312-1.265625zm0 0" fill="url(#b)"/><path d="m50.066406 13.675781-5.402344 5.402344c.203126.378906.320313.808594.320313 1.265625v21.171875c0 .457031-.117187.890625-.320313 1.265625l5.402344 5.402344c4.234375-4.496094 6.824219-10.5625 6.824219-17.253906 0-6.691407-2.589844-12.757813-6.824219-17.253907zm0 0" fill="url(#c)"/><path d="m36.382812 56.066406h5.292969v-2.644531h-5.292969zm0 0" fill="url(#e)"/><path d="m27.121094 56.066406h-5.289063v2.648438h5.289063zm0 0" fill="url(#f)"/><path d="m27.121094 56.066406h-5.289063v-2.644531h5.289063zm0 0" fill="url(#g)"/><path d="m36.382812 56.066406h5.292969v2.648438h-5.292969zm0 0" fill="url(#h)"/><path d="m27.121094 55.40625h9.261718v3.308594h-9.261718zm0 0" fill="url(#i)"/><path d="m43.601562 43.839844c-.375.203125-.804687.320312-1.265624.320312h-15.164063l-6.839844 5.863282c-.484375.414062-1.234375.070312-1.238281-.570313v-4.804687l-4.59375 4.59375c4.496094 4.238281 10.5625 6.824218 17.253906 6.824218s12.757813-2.585937 17.25-6.824218zm0 0" fill="url(#j)"/><g fill="#fff" fill-opacity=".392157"><path d="m31.753906 5.792969c-6.691406 0-12.757812 2.589843-17.253906 6.824219l.519531.515624c4.4375-3.953124 10.296875-6.347656 16.734375-6.347656s12.296875 2.394532 16.734375 6.347656l.515625-.515624c-4.492187-4.234376-10.558594-6.824219-17.25-6.824219zm0 0"/><path d="m13.441406 13.675781c-4.238281 4.496094-6.828125 10.5625-6.828125 17.253907 0 .167968.003907.332031.007813.496093.125-6.496093 2.6875-12.371093 6.820312-16.757812l5.136719 5.140625c.050781-.257813.140625-.503906.265625-.730469zm5.082032 27.839844v.992187c0 .183594.019531.363282.054687.535157l.265625-.265625c-.203125-.375-.320312-.804688-.320312-1.261719zm0 0"/><path d="m50.066406 13.675781-5.402344 5.402344c.121094.226563.210938.472656.265626.730469l5.136718-5.140625c4.128906 4.386719 6.695313 10.261719 6.820313 16.757812.003906-.164062.003906-.328125.003906-.496093 0-6.691407-2.589844-12.757813-6.824219-17.253907zm-5.082031 27.839844c0 .457031-.117187.890625-.320313 1.265625l.265626.261719c.035156-.171875.054687-.351563.054687-.535157zm0 0"/><path d="m43.601562 43.839844c-.375.203125-.804687.320312-1.265624.320312h-15.164063l-6.839844 5.863282c-.484375.414062-1.234375.070312-1.238281-.570313v.992187c.003906.640626.753906.984376 1.238281.570313l6.839844-5.863281h15.164063c.460937 0 .890624-.117188 1.265624-.320313l4.886719 4.886719c.175781-.15625.347657-.316406.515625-.476562zm-24.507812.808594-4.59375 4.59375c.171875.160156.34375.320312.519531.476562l4.074219-4.078125zm0 0"/></g><path d="m15.019531 12.140625c-.175781.15625-.347656.316406-.519531.476563l5.402344 5.402343c.375-.203125.808594-.320312 1.265625-.320312h21.167969c.460937 0 .890624.117187 1.265624.320312l5.402344-5.402343c-.167968-.160157-.339844-.320313-.515625-.476563l-4.886719 4.886719c-.375-.203125-.804687-.320313-1.265624-.320313h-21.167969c-.457031 0-.890625.117188-1.265625.320313zm3.558594 6.675781c-.035156.171875-.054687.351563-.054687.535156v.992188c0-.457031.113281-.886719.320312-1.265625zm26.351563 0-.265626.261719c.203126.378906.320313.808594.320313 1.265625v-.992188c0-.183593-.019531-.363281-.054687-.535156zm-38.308594 11.617188c-.003906.164062-.007813.332031-.007813.496094 0 6.691406 2.589844 12.757812 6.828125 17.253906l5.402344-5.40625c-.121094-.222656-.214844-.46875-.265625-.726563l-5.136719 5.140625c-4.132812-4.386718-6.695312-10.261718-6.820312-16.757812zm50.265625 0c-.125 6.496094-2.691407 12.371094-6.820313 16.757812l-5.136718-5.140625c-.054688.261719-.144532.503907-.265626.730469l5.402344 5.402344c4.234375-4.496094 6.824219-10.5625 6.824219-17.253906 0-.164063 0-.332032-.003906-.496094zm-41.867188 18.292968-.519531.515626c4.496094 4.238281 10.5625 6.824218 17.253906 6.824218s12.757813-2.585937 17.25-6.824218l-.515625-.515626c-4.4375 3.953126-10.296875 6.347657-16.734375 6.347657s-12.296875-2.394531-16.734375-6.347657zm0 0" fill-opacity=".235294"/><path d="m960.026483 175.140764c-202.303527 0-385.711218 78.299614-521.643127 206.318891l163.330868 163.330868c11.337501-6.141146 24.446486-9.684115 38.264065-9.684115h639.978289c13.935678 0 26.926564 3.542969 38.264064 9.684115l163.330868-163.330868c-135.813809-128.019277-319.221501-206.318891-521.525027-206.318891zm0 0" fill="none" stroke="#212121" stroke-linecap="round" stroke-width="11.338583" transform="scale(.0330761)"/><path d="m406.378537 413.464475c-128.137377 135.931908-206.43699 319.3396-206.43699 521.643126s78.299613 385.711218 206.43699 521.643127l163.330868-163.448967c-6.141146-11.337501-9.684115-24.328387-9.684115-38.145966v-640.096388c0-13.817579 3.42487-26.808465 9.684115-38.264064zm0 0" fill="none" stroke="#212121" stroke-linecap="round" stroke-width="11.338583" transform="scale(.0330761)"/><path d="m1513.674429 413.464475-163.330868 163.330868c6.141146 11.455599 9.684115 24.446485 9.684115 38.264064v640.096388c0 13.817579-3.542969 26.926564-9.684115 38.264065l163.330868 163.330868c128.019277-135.931909 206.318891-319.339601 206.318891-521.643127s-78.299614-385.711218-206.318891-521.643126zm0 0" fill="none" stroke="#212121" stroke-linecap="round" stroke-width="11.338583" transform="scale(.0330761)"/><path d="m1318.220642 1325.424679c-11.3375 6.141146-24.328386 9.684115-38.264064 9.684115h-458.460181l-206.791287 177.266546c-14.644271 12.51849-37.319272 2.125781-37.437371-17.242449v-145.261726l-138.884383 138.884382c135.931909 128.137377 319.3396 206.318891 521.643127 206.318891 202.303526 0 385.711218-78.181514 521.525027-206.318891zm0 0" fill="none" stroke="#212121" stroke-linecap="round" stroke-width="11.338583" transform="scale(.0330761)"/></svg>

<?xml version="1.0" encoding="UTF-8"?>
<svg xmlns="http://www.w3.org/2000/svg" xmlns:xlink="http://www.w3.org/1999/xlink" width="64pt" height="64pt" viewBox="0 0 64 64" version="1.1">
<defs>
<linearGradient id="linear0" gradientUnits="userSpaceOnUse" x1="254" y1="-168.666672" x2="254" y2="233.5" gradientTransform="matrix(0.125012,0,0,0.125012,0,26.877564)">
<stop offset="0" style="stop-color:rgb(30.19608%,81.568629%,88.235295%);stop-opacity:1;"/>
<stop offset="1" style="stop-color:rgb(14.901961%,77.64706%,85.490197%);stop-opacity:1;"/>
</linearGradient>
<linearGradient id="linear1" gradientUnits="userSpaceOnUse" x1="254" y1="-168.666672" x2="254" y2="233.5" gradientTransform="matrix(0.125012,0,0,0.125012,0,26.877564)">
<stop offset="0" style="stop-color:rgb(94.117647%,38.431373%,57.254905%);stop-opacity:1;"/>
<stop offset="1" style="stop-color:rgb(92.54902%,25.098041%,47.843137%);stop-opacity:1;"/>
</linearGradient>
<linearGradient id="linear2" gradientUnits="userSpaceOnUse" x1="254" y1="-168.666672" x2="254" y2="233.5" gradientTransform="matrix(0.125012,0,0,0.125012,0,26.877564)">
<stop offset="0" style="stop-color:rgb(100%,54.11765%,39.607844%);stop-opacity:1;"/>
<stop offset="1" style="stop-color:rgb(100%,43.921569%,26.274511%);stop-opacity:1;"/>
</linearGradient>
<radialGradient id="radial0" gradientUnits="userSpaceOnUse" cx="450.908936" cy="189.579361" fx="450.908936" fy="189.579361" r="21.166656" gradientTransform="matrix(0.000000348341,-0.156265,-0.281277,-0.000000203077,89.046304,127.190659)">
<stop offset="0" style="stop-color:rgb(0%,0%,0%);stop-opacity:0.313726;"/>
<stop offset="0.222222" style="stop-color:rgb(0%,0%,0%);stop-opacity:0.27451;"/>
<stop offset="1" style="stop-color:rgb(0%,0%,0%);stop-opacity:0;"/>
</radialGradient>
<radialGradient id="radial1" gradientUnits="userSpaceOnUse" cx="450.908936" cy="189.579361" fx="450.908936" fy="189.579361" r="21.166656" gradientTransform="matrix(-0.000000348341,0.156265,0.281277,0.000000203077,-25.540237,-15.054964)">
<stop offset="0" style="stop-color:rgb(0%,0%,0%);stop-opacity:0.313726;"/>
<stop offset="0.222222" style="stop-color:rgb(0%,0%,0%);stop-opacity:0.27451;"/>
<stop offset="1" style="stop-color:rgb(0%,0%,0%);stop-opacity:0;"/>
</radialGradient>
<radialGradient id="radial2" gradientUnits="userSpaceOnUse" cx="450.908936" cy="189.579361" fx="450.908936" fy="189.579361" r="21.166656" gradientTransform="matrix(-0.000000348341,-0.156265,0.281277,-0.000000203077,-25.540237,127.190659)">
<stop offset="0" style="stop-color:rgb(0%,0%,0%);stop-opacity:0.313726;"/>
<stop offset="0.222222" style="stop-color:rgb(0%,0%,0%);stop-opacity:0.27451;"/>
<stop offset="1" style="stop-color:rgb(0%,0%,0%);stop-opacity:0;"/>
</radialGradient>
<radialGradient id="radial3" gradientUnits="userSpaceOnUse" cx="450.908936" cy="189.579361" fx="450.908936" fy="189.579361" r="21.166656" gradientTransform="matrix(0.000000348341,0.156265,-0.281277,0.000000203077,89.0463,-15.054965)">
<stop offset="0" style="stop-color:rgb(0%,0%,0%);stop-opacity:0.313726;"/>
<stop offset="0.222222" style="stop-color:rgb(0%,0%,0%);stop-opacity:0.27451;"/>
<stop offset="1" style="stop-color:rgb(0%,0%,0%);stop-opacity:0;"/>
</radialGradient>
<linearGradient id="linear3" gradientUnits="userSpaceOnUse" x1="255.323059" y1="233.5" x2="255.323044" y2="254.666656" gradientTransform="matrix(0.0267201,0,0,0.125012,24.930772,26.877567)">
<stop offset="0" style="stop-color:rgb(0%,0%,0%);stop-opacity:0.27451;"/>
<stop offset="1" style="stop-color:rgb(0%,0%,0%);stop-opacity:0;"/>
</linearGradient>
<linearGradient id="linear4" gradientUnits="userSpaceOnUse" x1="254" y1="-168.666672" x2="254" y2="233.5" gradientTransform="matrix(0.125012,0,0,0.125012,0,26.877564)">
<stop offset="0" style="stop-color:rgb(100%,71.764708%,30.19608%);stop-opacity:1;"/>
<stop offset="1" style="stop-color:rgb(100%,65.490198%,14.901961%);stop-opacity:1;"/>
</linearGradient>
</defs>
<g id="surface1">
<path style=" stroke:none;fill-rule:nonzero;fill:url(#linear0);" d="M 31.753906 5.792969 C 25.0625 5.792969 18.996094 8.382812 14.5 12.617188 L 19.902344 18.019531 C 20.277344 17.816406 20.710938 17.699219 21.167969 17.699219 L 42.335938 17.699219 C 42.796875 17.699219 43.226562 17.816406 43.601562 18.019531 L 49.003906 12.617188 C 44.511719 8.382812 38.445312 5.792969 31.753906 5.792969 Z M 31.753906 5.792969 "/>
<path style=" stroke:none;fill-rule:nonzero;fill:url(#linear1);" d="M 13.441406 13.675781 C 9.203125 18.171875 6.613281 24.238281 6.613281 30.929688 C 6.613281 37.621094 9.203125 43.6875 13.441406 48.183594 L 18.84375 42.777344 C 18.640625 42.402344 18.523438 41.972656 18.523438 41.515625 L 18.523438 20.34375 C 18.523438 19.886719 18.636719 19.457031 18.84375 19.078125 Z M 13.441406 13.675781 "/>
<path style=" stroke:none;fill-rule:nonzero;fill:url(#linear2);" d="M 50.066406 13.675781 L 44.664062 19.078125 C 44.867188 19.457031 44.984375 19.886719 44.984375 20.34375 L 44.984375 41.515625 C 44.984375 41.972656 44.867188 42.40625 44.664062 42.78125 L 50.066406 48.183594 C 54.300781 43.6875 56.890625 37.621094 56.890625 30.929688 C 56.890625 24.238281 54.300781 18.171875 50.066406 13.675781 Z M 50.066406 13.675781 "/>
<path style=" stroke:none;fill-rule:nonzero;fill:url(#radial0);" d="M 36.382812 56.066406 L 41.675781 56.066406 L 41.675781 53.421875 L 36.382812 53.421875 Z M 36.382812 56.066406 "/>
<path style=" stroke:none;fill-rule:nonzero;fill:url(#radial1);" d="M 27.121094 56.066406 L 21.832031 56.066406 L 21.832031 58.714844 L 27.121094 58.714844 Z M 27.121094 56.066406 "/>
<path style=" stroke:none;fill-rule:nonzero;fill:url(#radial2);" d="M 27.121094 56.066406 L 21.832031 56.066406 L 21.832031 53.421875 L 27.121094 53.421875 Z M 27.121094 56.066406 "/>
<path style=" stroke:none;fill-rule:nonzero;fill:url(#radial3);" d="M 36.382812 56.066406 L 41.675781 56.066406 L 41.675781 58.714844 L 36.382812 58.714844 Z M 36.382812 56.066406 "/>
<path style=" stroke:none;fill-rule:nonzero;fill:url(#linear3);" d="M 27.121094 55.40625 L 36.382812 55.40625 L 36.382812 58.714844 L 27.121094 58.714844 Z M 27.121094 55.40625 "/>
<path style=" stroke:none;fill-rule:nonzero;fill:url(#linear4);" d="M 43.601562 43.839844 C 43.226562 44.042969 42.796875 44.160156 42.335938 44.160156 L 27.171875 44.160156 L 20.332031 50.023438 C 19.847656 50.4375 19.097656 50.09375 19.09375 49.453125 L 19.09375 44.648438 L 14.5 49.242188 C 18.996094 53.480469 25.0625 56.066406 31.753906 56.066406 C 38.445312 56.066406 44.511719 53.480469 49.003906 49.242188 Z M 43.601562 43.839844 "/>
<path style=" stroke:none;fill-rule:nonzero;fill:rgb(100%,100%,100%);fill-opacity:0.392157;" d="M 31.753906 5.792969 C 25.0625 5.792969 18.996094 8.382812 14.5 12.617188 L 15.019531 13.132812 C 19.457031 9.179688 25.316406 6.785156 31.753906 6.785156 C 38.191406 6.785156 44.050781 9.179688 48.488281 13.132812 L 49.003906 12.617188 C 44.511719 8.382812 38.445312 5.792969 31.753906 5.792969 Z M 31.753906 5.792969 "/>
<path style=" stroke:none;fill-rule:nonzero;fill:rgb(100%,100%,100%);fill-opacity:0.392157;" d="M 13.441406 13.675781 C 9.203125 18.171875 6.613281 24.238281 6.613281 30.929688 C 6.613281 31.097656 6.617188 31.261719 6.621094 31.425781 C 6.746094 24.929688 9.308594 19.054688 13.441406 14.667969 L 18.578125 19.808594 C 18.628906 19.550781 18.71875 19.304688 18.84375 19.078125 Z M 18.523438 41.515625 L 18.523438 42.507812 C 18.523438 42.691406 18.542969 42.871094 18.578125 43.042969 L 18.84375 42.777344 C 18.640625 42.402344 18.523438 41.972656 18.523438 41.515625 Z M 18.523438 41.515625 "/>
<path style=" stroke:none;fill-rule:nonzero;fill:rgb(100%,100%,100%);fill-opacity:0.392157;" d="M 50.066406 13.675781 L 44.664062 19.078125 C 44.785156 19.304688 44.875 19.550781 44.929688 19.808594 L 50.066406 14.667969 C 54.195312 19.054688 56.761719 24.929688 56.886719 31.425781 C 56.890625 31.261719 56.890625 31.097656 56.890625 30.929688 C 56.890625 24.238281 54.300781 18.171875 50.066406 13.675781 Z M 44.984375 41.515625 C 44.984375 41.972656 44.867188 42.40625 44.664062 42.78125 L 44.929688 43.042969 C 44.964844 42.871094 44.984375 42.691406 44.984375 42.507812 Z M 44.984375 41.515625 "/>
<path style=" stroke:none;fill-rule:nonzero;fill:rgb(100%,100%,100%);fill-opacity:0.392157;" d="M 43.601562 43.839844 C 43.226562 44.042969 42.796875 44.160156 42.335938 44.160156 L 27.171875 44.160156 L 20.332031 50.023438 C 19.847656 50.4375 19.097656 50.09375 19.09375 49.453125 L 19.09375 50.445312 C 19.097656 51.085938 19.847656 51.429688 20.332031 51.015625 L 27.171875 45.152344 L 42.335938 45.152344 C 42.796875 45.152344 43.226562 45.035156 43.601562 44.832031 L 48.488281 49.71875 C 48.664062 49.5625 48.835938 49.402344 49.003906 49.242188 Z M 19.09375 44.648438 L 14.5 49.242188 C 14.671875 49.402344 14.84375 49.5625 15.019531 49.71875 L 19.09375 45.640625 Z M 19.09375 44.648438 "/>
<path style=" stroke:none;fill-rule:nonzero;fill:rgb(0%,0%,0%);fill-opacity:0.235294;" d="M 15.019531 12.140625 C 14.84375 12.296875 14.671875 12.457031 14.5 12.617188 L 19.902344 18.019531 C 20.277344 17.816406 20.710938 17.699219 21.167969 17.699219 L 42.335938 17.699219 C 42.796875 17.699219 43.226562 17.816406 43.601562 18.019531 L 49.003906 12.617188 C 48.835938 12.457031 48.664062 12.296875 48.488281 12.140625 L 43.601562 17.027344 C 43.226562 16.824219 42.796875 16.707031 42.335938 16.707031 L 21.167969 16.707031 C 20.710938 16.707031 20.277344 16.824219 19.902344 17.027344 Z M 18.578125 18.816406 C 18.542969 18.988281 18.523438 19.167969 18.523438 19.351562 L 18.523438 20.34375 C 18.523438 19.886719 18.636719 19.457031 18.84375 19.078125 Z M 44.929688 18.816406 L 44.664062 19.078125 C 44.867188 19.457031 44.984375 19.886719 44.984375 20.34375 L 44.984375 19.351562 C 44.984375 19.167969 44.964844 18.988281 44.929688 18.816406 Z M 6.621094 30.433594 C 6.617188 30.597656 6.613281 30.765625 6.613281 30.929688 C 6.613281 37.621094 9.203125 43.6875 13.441406 48.183594 L 18.84375 42.777344 C 18.722656 42.554688 18.628906 42.308594 18.578125 42.050781 L 13.441406 47.191406 C 9.308594 42.804688 6.746094 36.929688 6.621094 30.433594 Z M 56.886719 30.433594 C 56.761719 36.929688 54.195312 42.804688 50.066406 47.191406 L 44.929688 42.050781 C 44.875 42.3125 44.785156 42.554688 44.664062 42.78125 L 50.066406 48.183594 C 54.300781 43.6875 56.890625 37.621094 56.890625 30.929688 C 56.890625 30.765625 56.890625 30.597656 56.886719 30.433594 Z M 15.019531 48.726562 L 14.5 49.242188 C 18.996094 53.480469 25.0625 56.066406 31.753906 56.066406 C 38.445312 56.066406 44.511719 53.480469 49.003906 49.242188 L 48.488281 48.726562 C 44.050781 52.679688 38.191406 55.074219 31.753906 55.074219 C 25.316406 55.074219 19.457031 52.679688 15.019531 48.726562 Z M 15.019531 48.726562 "/>
<path style="fill:none;stroke-width:11.338583;stroke-linecap:round;stroke-linejoin:miter;stroke:rgb(12.941177%,12.941177%,12.941177%);stroke-opacity:1;stroke-miterlimit:4;" d="M 960.026483 175.140764 C 757.722956 175.140764 574.315265 253.440378 438.383356 381.459655 L 601.714224 544.790523 C 613.051725 538.649377 626.16071 535.106408 639.978289 535.106408 L 1279.956578 535.106408 C 1293.892256 535.106408 1306.883142 538.649377 1318.220642 544.790523 L 1481.55151 381.459655 C 1345.737701 253.440378 1162.330009 175.140764 960.026483 175.140764 Z M 960.026483 175.140764 " transform="matrix(0.0330761,0,0,0.0330761,0,0)"/>
<path style="fill:none;stroke-width:11.338583;stroke-linecap:round;stroke-linejoin:miter;stroke:rgb(12.941177%,12.941177%,12.941177%);stroke-opacity:1;stroke-miterlimit:4;" d="M 406.378537 413.464475 C 278.24116 549.396383 199.941547 732.804075 199.941547 935.107601 C 199.941547 1137.411127 278.24116 1320.818819 406.378537 1456.750728 L 569.709405 1293.301761 C 563.568259 1281.96426 560.02529 1268.973374 560.02529 1255.155795 L 560.02529 615.059407 C 560.02529 601.241828 563.45016 588.250942 569.709405 576.795343 Z M 406.378537 413.464475 " transform="matrix(0.0330761,0,0,0.0330761,0,0)"/>
<path style="fill:none;stroke-width:11.338583;stroke-linecap:round;stroke-linejoin:miter;stroke:rgb(12.941177%,12.941177%,12.941177%);stroke-opacity:1;stroke-miterlimit:4;" d="M 1513.674429 413.464475 L 1350.343561 576.795343 C 1356.484707 588.250942 1360.027676 601.241828 1360.027676 615.059407 L 1360.027676 1255.155795 C 1360.027676 1268.973374 1356.484707 1282.082359 1350.343561 1293.41986 L 1513.674429 1456.750728 C 1641.693706 1320.818819 1719.99332 1137.411127 1719.99332 935.107601 C 1719.99332 732.804075 1641.693706 549.396383 1513.674429 413.464475 Z M 1513.674429 413.464475 " transform="matrix(0.0330761,0,0,0.0330761,0,0)"/>
<path style="fill:none;stroke-width:11.338583;stroke-linecap:round;stroke-linejoin:miter;stroke:rgb(12.941177%,12.941177%,12.941177%);stroke-opacity:1;stroke-miterlimit:4;" d="M 1318.220642 1325.424679 C 1306.883142 1331.565825 1293.892256 1335.108794 1279.956578 1335.108794 L 821.496397 1335.108794 L 614.70511 1512.37534 C 600.060839 1524.89383 577.385838 1514.501121 577.267739 1495.132891 L 577.267739 1349.871165 L 438.383356 1488.755547 C 574.315265 1616.892924 757.722956 1695.074438 960.026483 1695.074438 C 1162.330009 1695.074438 1345.737701 1616.892924 1481.55151 1488.755547 Z M 1318.220642 1325.424679 " transform="matrix(0.0330761,0,0,0.0330761,0,0)"/>
</g>
</svg>
